X: 8
T: The Hag With The Money
R: jig
M: 6/8
L: 1/8
K: Amix
|: Adc AB=c | AGE GFG | Adc AB=c | dBA GED |
| Adc AB=c | AGE GFG | E2B Ade | dcA GED :|
|: ABc d2e | fed edc | ABc d2e | faf gec |
| ABc d2e | fed edc | aga def | edB AGE :|


Tune 351	Setting 23632

